images/3235409.svg

<?xml version="1.0" encoding="UTF-8"?>
<svg xmlns="http://www.w3.org/2000/svg" xmlns:xlink="http://www.w3.org/1999/xlink" width="300pt" height="300pt" viewBox="0 0 300 300" version="1.1">
<defs>
<g>
<symbol overflow="visible" id="glyph0-0">
<path style="stroke:none;" d="M 0.453125 1.59375 L 0.453125 -6.34375 L 4.953125 -6.34375 L 4.953125 1.59375 Z M 0.953125 1.09375 L 4.453125 1.09375 L 4.453125 -5.84375 L 0.953125 -5.84375 Z M 0.953125 1.09375 "/>
</symbol>
<symbol overflow="visible" id="glyph0-1">
<path style="stroke:none;" d="M 0.890625 -6.5625 L 2.078125 -6.5625 L 4.984375 -1.078125 L 4.984375 -6.5625 L 5.84375 -6.5625 L 5.84375 0 L 4.65625 0 L 1.75 -5.484375 L 1.75 0 L 0.890625 0 Z M 0.890625 -6.5625 "/>
</symbol>
<symbol overflow="visible" id="glyph0-2">
<path style="stroke:none;" d="M 0.890625 -6.5625 L 1.765625 -6.5625 L 1.765625 -3.875 L 5 -3.875 L 5 -6.5625 L 5.890625 -6.5625 L 5.890625 0 L 5 0 L 5 -3.125 L 1.765625 -3.125 L 1.765625 0 L 0.890625 0 Z M 0.890625 -6.5625 "/>
</symbol>
<symbol overflow="visible" id="glyph0-3">
<path style="stroke:none;" d="M 3.546875 -5.953125 C 2.898438 -5.953125 2.382812 -5.710938 2 -5.234375 C 1.625 -4.753906 1.4375 -4.101562 1.4375 -3.28125 C 1.4375 -2.445312 1.625 -1.789062 2 -1.3125 C 2.382812 -0.832031 2.898438 -0.59375 3.546875 -0.59375 C 4.191406 -0.59375 4.703125 -0.832031 5.078125 -1.3125 C 5.453125 -1.789062 5.640625 -2.445312 5.640625 -3.28125 C 5.640625 -4.101562 5.453125 -4.753906 5.078125 -5.234375 C 4.703125 -5.710938 4.191406 -5.953125 3.546875 -5.953125 Z M 3.546875 -6.6875 C 4.460938 -6.6875 5.195312 -6.375 5.75 -5.75 C 6.300781 -5.132812 6.578125 -4.3125 6.578125 -3.28125 C 6.578125 -2.238281 6.300781 -1.410156 5.75 -0.796875 C 5.195312 -0.179688 4.460938 0.125 3.546875 0.125 C 2.617188 0.125 1.878906 -0.179688 1.328125 -0.796875 C 0.773438 -1.410156 0.5 -2.238281 0.5 -3.28125 C 0.5 -4.3125 0.773438 -5.132812 1.328125 -5.75 C 1.878906 -6.375 2.617188 -6.6875 3.546875 -6.6875 Z M 3.546875 -6.6875 "/>
</symbol>
</g>
</defs>
<g id="surface54397">
<rect x="0" y="0" width="300" height="300" style="fill:rgb(100%,100%,100%);fill-opacity:1;stroke:none;"/>
<path style="fill:none;stroke-width:1.2;stroke-linecap:butt;stroke-linejoin:miter;stroke:rgb(0%,0%,0%);stroke-opacity:1;stroke-miterlimit:10;" d="M 35.25 169.710938 L 55.640625 172.722656 "/>
<path style="fill:none;stroke-width:1.2;stroke-linecap:butt;stroke-linejoin:miter;stroke:rgb(0%,0%,0%);stroke-opacity:1;stroke-miterlimit:10;" d="M 55.640625 172.722656 L 63.226562 191.886719 "/>
<path style="fill:none;stroke-width:1.2;stroke-linecap:butt;stroke-linejoin:miter;stroke:rgb(0%,0%,0%);stroke-opacity:1;stroke-miterlimit:10;" d="M 55.640625 172.722656 L 62.039062 164.644531 "/>
<path style="fill:none;stroke-width:1.2;stroke-linecap:butt;stroke-linejoin:miter;stroke:rgb(0%,0%,100%);stroke-opacity:1;stroke-miterlimit:10;" d="M 62.039062 164.644531 L 68.441406 156.570312 "/>
<path style="fill:none;stroke-width:1.2;stroke-linecap:butt;stroke-linejoin:miter;stroke:rgb(0%,0%,100%);stroke-opacity:1;stroke-miterlimit:10;" d="M 68.441406 156.570312 L 78.636719 158.074219 "/>
<path style="fill:none;stroke-width:1.2;stroke-linecap:butt;stroke-linejoin:miter;stroke:rgb(0%,0%,0%);stroke-opacity:1;stroke-miterlimit:10;" d="M 78.636719 158.074219 L 88.832031 159.582031 "/>
<path style=" stroke:none;fill-rule:nonzero;fill:rgb(100%,100%,100%);fill-opacity:1;" d="M 61.441406 151.070312 L 75.441406 151.070312 L 75.441406 162.070312 L 61.441406 162.070312 Z M 61.441406 151.070312 "/>
<g style="fill:rgb(0%,0%,100%);fill-opacity:1;">
  <use xlink:href="#glyph0-1" x="61.441406" y="159.733398"/>
  <use xlink:href="#glyph0-2" x="68.418945" y="159.733398"/>
</g>
<path style="fill:none;stroke-width:1.2;stroke-linecap:butt;stroke-linejoin:miter;stroke:rgb(0%,0%,0%);stroke-opacity:1;stroke-miterlimit:10;" d="M 86.578125 160.472656 L 90.371094 170.054688 "/>
<path style="fill:none;stroke-width:1.2;stroke-linecap:butt;stroke-linejoin:miter;stroke:rgb(100%,0%,0%);stroke-opacity:1;stroke-miterlimit:10;" d="M 90.371094 170.054688 L 94.164062 179.636719 "/>
<path style="fill:none;stroke-width:1.2;stroke-linecap:butt;stroke-linejoin:miter;stroke:rgb(0%,0%,0%);stroke-opacity:1;stroke-miterlimit:10;" d="M 91.085938 158.6875 L 94.878906 168.269531 "/>
<path style="fill:none;stroke-width:1.2;stroke-linecap:butt;stroke-linejoin:miter;stroke:rgb(100%,0%,0%);stroke-opacity:1;stroke-miterlimit:10;" d="M 94.878906 168.269531 L 98.671875 177.851562 "/>
<path style="fill:none;stroke-width:1.2;stroke-linecap:butt;stroke-linejoin:miter;stroke:rgb(0%,0%,0%);stroke-opacity:1;stroke-miterlimit:10;" d="M 88.832031 159.582031 L 95.234375 151.503906 "/>
<path style="fill:none;stroke-width:1.2;stroke-linecap:butt;stroke-linejoin:miter;stroke:rgb(0%,0%,100%);stroke-opacity:1;stroke-miterlimit:10;" d="M 95.234375 151.503906 L 101.632812 143.429688 "/>
<path style=" stroke:none;fill-rule:nonzero;fill:rgb(100%,100%,100%);fill-opacity:1;" d="M 92.417969 173.246094 L 100.417969 173.246094 L 100.417969 184.246094 L 92.417969 184.246094 Z M 92.417969 173.246094 "/>
<g style="fill:rgb(100%,0%,0%);fill-opacity:1;">
  <use xlink:href="#glyph0-3" x="92.417969" y="181.90918"/>
</g>
<path style="fill:none;stroke-width:1.2;stroke-linecap:butt;stroke-linejoin:miter;stroke:rgb(0%,0%,100%);stroke-opacity:1;stroke-miterlimit:10;" d="M 101.632812 143.429688 L 97.839844 133.847656 "/>
<path style="fill:none;stroke-width:1.2;stroke-linecap:butt;stroke-linejoin:miter;stroke:rgb(0%,0%,0%);stroke-opacity:1;stroke-miterlimit:10;" d="M 97.839844 133.847656 L 94.046875 124.265625 "/>
<path style="fill:none;stroke-width:1.2;stroke-linecap:butt;stroke-linejoin:miter;stroke:rgb(0%,0%,0%);stroke-opacity:1;stroke-miterlimit:10;" d="M 122.023438 146.441406 L 111.828125 144.933594 "/>
<path style="fill:none;stroke-width:1.2;stroke-linecap:butt;stroke-linejoin:miter;stroke:rgb(0%,0%,100%);stroke-opacity:1;stroke-miterlimit:10;" d="M 111.828125 144.933594 L 101.632812 143.429688 "/>
<path style=" stroke:none;fill-rule:nonzero;fill:rgb(100%,100%,100%);fill-opacity:1;" d="M 98.632812 137.929688 L 105.632812 137.929688 L 105.632812 148.929688 L 98.632812 148.929688 Z M 98.632812 137.929688 "/>
<g style="fill:rgb(0%,0%,100%);fill-opacity:1;">
  <use xlink:href="#glyph0-1" x="98.632812" y="146.592773"/>
</g>
<path style="fill:none;stroke-width:1.2;stroke-linecap:butt;stroke-linejoin:miter;stroke:rgb(0%,0%,0%);stroke-opacity:1;stroke-miterlimit:10;" d="M 94.046875 124.265625 L 106.851562 108.113281 "/>
<path style="fill:none;stroke-width:1.2;stroke-linecap:butt;stroke-linejoin:miter;stroke:rgb(0%,0%,0%);stroke-opacity:1;stroke-miterlimit:10;" d="M 106.851562 108.113281 L 127.238281 111.125 "/>
<path style="fill:none;stroke-width:1.2;stroke-linecap:butt;stroke-linejoin:miter;stroke:rgb(0%,0%,0%);stroke-opacity:1;stroke-miterlimit:10;" d="M 127.238281 111.125 L 134.828125 130.289062 "/>
<path style="fill:none;stroke-width:1.2;stroke-linecap:butt;stroke-linejoin:miter;stroke:rgb(0%,0%,0%);stroke-opacity:1;stroke-miterlimit:10;" d="M 134.828125 130.289062 L 122.023438 146.441406 "/>
<path style="fill:none;stroke-width:1.2;stroke-linecap:butt;stroke-linejoin:miter;stroke:rgb(0%,0%,0%);stroke-opacity:1;stroke-miterlimit:10;" d="M 134.828125 130.289062 L 142.414062 149.453125 "/>
<path style="fill:none;stroke-width:1.2;stroke-linecap:butt;stroke-linejoin:miter;stroke:rgb(0%,0%,0%);stroke-opacity:1;stroke-miterlimit:10;" d="M 147.628906 114.136719 L 134.828125 130.289062 "/>
<path style="fill:none;stroke-width:1.2;stroke-linecap:butt;stroke-linejoin:miter;stroke:rgb(0%,0%,0%);stroke-opacity:1;stroke-miterlimit:10;" d="M 142.414062 149.453125 L 162.804688 152.464844 "/>
<path style="fill:none;stroke-width:1.2;stroke-linecap:butt;stroke-linejoin:miter;stroke:rgb(0%,0%,0%);stroke-opacity:1;stroke-miterlimit:10;" d="M 162.804688 152.464844 L 169.203125 144.386719 "/>
<path style="fill:none;stroke-width:1.2;stroke-linecap:butt;stroke-linejoin:miter;stroke:rgb(0%,0%,100%);stroke-opacity:1;stroke-miterlimit:10;" d="M 169.203125 144.386719 L 175.605469 136.3125 "/>
<path style="fill:none;stroke-width:1.2;stroke-linecap:butt;stroke-linejoin:miter;stroke:rgb(0%,0%,100%);stroke-opacity:1;stroke-miterlimit:10;" d="M 175.605469 136.3125 L 171.8125 126.730469 "/>
<path style="fill:none;stroke-width:1.2;stroke-linecap:butt;stroke-linejoin:miter;stroke:rgb(0%,0%,0%);stroke-opacity:1;stroke-miterlimit:10;" d="M 171.8125 126.730469 L 168.019531 117.148438 "/>
<path style="fill:none;stroke-width:1.2;stroke-linecap:butt;stroke-linejoin:miter;stroke:rgb(0%,0%,100%);stroke-opacity:1;stroke-miterlimit:10;" d="M 175.605469 136.3125 L 185.800781 137.816406 "/>
<path style="fill:none;stroke-width:1.2;stroke-linecap:butt;stroke-linejoin:miter;stroke:rgb(0%,0%,0%);stroke-opacity:1;stroke-miterlimit:10;" d="M 185.800781 137.816406 L 195.996094 139.324219 "/>
<path style=" stroke:none;fill-rule:nonzero;fill:rgb(100%,100%,100%);fill-opacity:1;" d="M 172.605469 130.8125 L 179.605469 130.8125 L 179.605469 141.8125 L 172.605469 141.8125 Z M 172.605469 130.8125 "/>
<g style="fill:rgb(0%,0%,100%);fill-opacity:1;">
  <use xlink:href="#glyph0-1" x="172.605469" y="139.475586"/>
</g>
<path style="fill:none;stroke-width:1.2;stroke-linecap:butt;stroke-linejoin:miter;stroke:rgb(0%,0%,0%);stroke-opacity:1;stroke-miterlimit:10;" d="M 168.019531 117.148438 L 147.628906 114.136719 "/>
<path style="fill:none;stroke-width:1.2;stroke-linecap:butt;stroke-linejoin:miter;stroke:rgb(0%,0%,0%);stroke-opacity:1;stroke-miterlimit:10;" d="M 197.894531 140.832031 L 204.296875 132.753906 "/>
<path style="fill:none;stroke-width:1.2;stroke-linecap:butt;stroke-linejoin:miter;stroke:rgb(100%,0%,0%);stroke-opacity:1;stroke-miterlimit:10;" d="M 204.296875 132.753906 L 210.699219 124.679688 "/>
<path style="fill:none;stroke-width:1.2;stroke-linecap:butt;stroke-linejoin:miter;stroke:rgb(0%,0%,0%);stroke-opacity:1;stroke-miterlimit:10;" d="M 194.09375 137.816406 L 200.496094 129.742188 "/>
<path style="fill:none;stroke-width:1.2;stroke-linecap:butt;stroke-linejoin:miter;stroke:rgb(100%,0%,0%);stroke-opacity:1;stroke-miterlimit:10;" d="M 200.496094 129.742188 L 206.898438 121.664062 "/>
<path style="fill:none;stroke-width:1.2;stroke-linecap:butt;stroke-linejoin:miter;stroke:rgb(0%,0%,0%);stroke-opacity:1;stroke-miterlimit:10;" d="M 195.996094 139.324219 L 199.789062 148.90625 "/>
<path style="fill:none;stroke-width:1.2;stroke-linecap:butt;stroke-linejoin:miter;stroke:rgb(100%,0%,0%);stroke-opacity:1;stroke-miterlimit:10;" d="M 199.789062 148.90625 L 203.582031 158.488281 "/>
<path style=" stroke:none;fill-rule:nonzero;fill:rgb(100%,100%,100%);fill-opacity:1;" d="M 204.796875 117.671875 L 212.796875 117.671875 L 212.796875 128.671875 L 204.796875 128.671875 Z M 204.796875 117.671875 "/>
<g style="fill:rgb(100%,0%,0%);fill-opacity:1;">
  <use xlink:href="#glyph0-3" x="204.796875" y="126.334961"/>
</g>
<path style="fill:none;stroke-width:1.2;stroke-linecap:butt;stroke-linejoin:miter;stroke:rgb(100%,0%,0%);stroke-opacity:1;stroke-miterlimit:10;" d="M 203.582031 158.488281 L 213.777344 159.992188 "/>
<path style="fill:none;stroke-width:1.2;stroke-linecap:butt;stroke-linejoin:miter;stroke:rgb(0%,0%,0%);stroke-opacity:1;stroke-miterlimit:10;" d="M 213.777344 159.992188 L 223.972656 161.5 "/>
<path style=" stroke:none;fill-rule:nonzero;fill:rgb(100%,100%,100%);fill-opacity:1;" d="M 199.582031 152.988281 L 207.582031 152.988281 L 207.582031 163.988281 L 199.582031 163.988281 Z M 199.582031 152.988281 "/>
<g style="fill:rgb(100%,0%,0%);fill-opacity:1;">
  <use xlink:href="#glyph0-3" x="199.582031" y="161.651367"/>
</g>
<path style="fill:none;stroke-width:1.2;stroke-linecap:butt;stroke-linejoin:miter;stroke:rgb(0%,0%,0%);stroke-opacity:1;stroke-miterlimit:10;" d="M 223.972656 161.5 L 231.558594 180.664062 "/>
<path style="fill:none;stroke-width:1.2;stroke-linecap:butt;stroke-linejoin:miter;stroke:rgb(0%,0%,0%);stroke-opacity:1;stroke-miterlimit:10;" d="M 229.238281 161.628906 L 235.308594 176.960938 "/>
<path style="fill:none;stroke-width:1.2;stroke-linecap:butt;stroke-linejoin:miter;stroke:rgb(0%,0%,0%);stroke-opacity:1;stroke-miterlimit:10;" d="M 236.773438 145.347656 L 223.972656 161.5 "/>
<path style="fill:none;stroke-width:1.2;stroke-linecap:butt;stroke-linejoin:miter;stroke:rgb(0%,0%,0%);stroke-opacity:1;stroke-miterlimit:10;" d="M 231.558594 180.664062 L 251.945312 183.675781 "/>
<path style="fill:none;stroke-width:1.2;stroke-linecap:butt;stroke-linejoin:miter;stroke:rgb(0%,0%,0%);stroke-opacity:1;stroke-miterlimit:10;" d="M 251.945312 183.675781 L 264.75 167.523438 "/>
<path style="fill:none;stroke-width:1.2;stroke-linecap:butt;stroke-linejoin:miter;stroke:rgb(0%,0%,0%);stroke-opacity:1;stroke-miterlimit:10;" d="M 249.425781 179.046875 L 259.667969 166.125 "/>
<path style="fill:none;stroke-width:1.2;stroke-linecap:butt;stroke-linejoin:miter;stroke:rgb(0%,0%,0%);stroke-opacity:1;stroke-miterlimit:10;" d="M 264.75 167.523438 L 257.164062 148.359375 "/>
<path style="fill:none;stroke-width:1.2;stroke-linecap:butt;stroke-linejoin:miter;stroke:rgb(0%,0%,0%);stroke-opacity:1;stroke-miterlimit:10;" d="M 257.164062 148.359375 L 236.773438 145.347656 "/>
<path style="fill:none;stroke-width:1.2;stroke-linecap:butt;stroke-linejoin:miter;stroke:rgb(0%,0%,0%);stroke-opacity:1;stroke-miterlimit:10;" d="M 254.414062 152.855469 L 238.105469 150.445312 "/>
</g>
</svg>

<svg xmlns="http://www.w3.org/2000/svg" xmlns:xlink="http://www.w3.org/1999/xlink" width="300pt" height="300pt" viewBox="0 0 300 300"><defs><symbol overflow="visible"><path d="M.453 1.594v-7.938h4.5v7.938zm.5-.5h3.5v-6.938h-3.5zm0 0"/></symbol><symbol overflow="visible" id="a"><path d="M.89-6.563H2.08l2.906 5.485v-5.484h.86V0H4.656L1.75-5.484V0H.89zm0 0"/></symbol><symbol overflow="visible" id="b"><path d="M.89-6.563h.876v2.688H5v-2.688h.89V0H5v-3.125H1.766V0H.89zm0 0"/></symbol><symbol overflow="visible" id="c"><path d="M3.547-5.953c-.65 0-1.164.242-1.547.72-.375.48-.563 1.13-.563 1.952 0 .835.188 1.49.563 1.967.383.48.898.72 1.547.72.644 0 1.156-.24 1.53-.72.376-.476.564-1.132.564-1.968 0-.822-.187-1.474-.562-1.954-.375-.477-.887-.72-1.53-.72zm0-.734c.914 0 1.648.312 2.203.937.55.617.828 1.438.828 2.47 0 1.042-.277 1.87-.828 2.483-.555.617-1.29.922-2.203.922-.93 0-1.668-.305-2.22-.922C.774-1.41.5-2.237.5-3.28c0-1.033.273-1.853.828-2.47.55-.625 1.29-.938 2.22-.938zm0 0"/></symbol></defs><g><path fill="#fff" d="M0 0h300v300H0z"/><path d="M35.25 169.71l20.39 3.013M55.64 172.723l7.587 19.164M55.64 172.723l6.4-8.078" stroke-width="1.2" stroke="#000" stroke-miterlimit="10" fill="none"/><path d="M62.04 164.645l6.4-8.075M68.44 156.57l10.197 1.504" stroke-width="1.2" stroke="#00f" stroke-miterlimit="10" fill="none"/><path d="M78.637 158.074l10.195 1.508" stroke-width="1.2" stroke="#000" stroke-miterlimit="10" fill="none"/><path d="M61.44 151.07h14v11h-14zm0 0" fill="#fff"/><g fill="#00f"><use xlink:href="#a" x="61.441" y="159.733"/><use xlink:href="#b" x="68.419" y="159.733"/></g><path d="M86.578 160.473l3.793 9.582" stroke-width="1.2" stroke="#000" stroke-miterlimit="10" fill="none"/><path d="M90.37 170.055l3.794 9.582" stroke-width="1.2" stroke="#f00" stroke-miterlimit="10" fill="none"/><path d="M91.086 158.688l3.793 9.582" stroke-width="1.2" stroke="#000" stroke-miterlimit="10" fill="none"/><path d="M94.88 168.27l3.792 9.582" stroke-width="1.2" stroke="#f00" stroke-miterlimit="10" fill="none"/><path d="M88.832 159.582l6.402-8.078" stroke-width="1.2" stroke="#000" stroke-miterlimit="10" fill="none"/><path d="M95.234 151.504l6.4-8.074" stroke-width="1.2" stroke="#00f" stroke-miterlimit="10" fill="none"/><path d="M92.418 173.246h8v11h-8zm0 0" fill="#fff"/><use xlink:href="#c" x="92.418" y="181.909" fill="#f00"/><path d="M101.633 143.43l-3.793-9.582" stroke-width="1.2" stroke="#00f" stroke-miterlimit="10" fill="none"/><path d="M97.84 133.848l-3.793-9.582M122.023 146.44l-10.195-1.506" stroke-width="1.2" stroke="#000" stroke-miterlimit="10" fill="none"/><path d="M111.828 144.934l-10.195-1.504" stroke-width="1.2" stroke="#00f" stroke-miterlimit="10" fill="none"/><path d="M98.633 137.93h7v11h-7zm0 0" fill="#fff"/><use xlink:href="#a" x="98.633" y="146.593" fill="#00f"/><path d="M94.047 124.266l12.805-16.153M106.852 108.113l20.386 3.012M127.238 111.125l7.59 19.164M134.828 130.29l-12.805 16.15M134.828 130.29l7.586 19.163M147.63 114.137l-12.802 16.152M142.414 149.453l20.39 3.012M162.805 152.465l6.398-8.078" stroke-width="1.2" stroke="#000" stroke-miterlimit="10" fill="none"/><path d="M169.203 144.387l6.402-8.075M175.605 136.313l-3.792-9.583" stroke-width="1.2" stroke="#00f" stroke-miterlimit="10" fill="none"/><path d="M171.813 126.73l-3.793-9.582" stroke-width="1.2" stroke="#000" stroke-miterlimit="10" fill="none"/><path d="M175.605 136.313l10.196 1.503" stroke-width="1.2" stroke="#00f" stroke-miterlimit="10" fill="none"/><path d="M185.8 137.816l10.196 1.508" stroke-width="1.2" stroke="#000" stroke-miterlimit="10" fill="none"/><path d="M172.605 130.813h7v11h-7zm0 0" fill="#fff"/><use xlink:href="#a" x="172.605" y="139.476" fill="#00f"/><path d="M168.02 117.148l-20.39-3.01M197.895 140.832l6.402-8.078" stroke-width="1.2" stroke="#000" stroke-miterlimit="10" fill="none"/><path d="M204.297 132.754l6.402-8.074" stroke-width="1.2" stroke="#f00" stroke-miterlimit="10" fill="none"/><path d="M194.094 137.816l6.402-8.074" stroke-width="1.2" stroke="#000" stroke-miterlimit="10" fill="none"/><path d="M200.496 129.742l6.402-8.078" stroke-width="1.2" stroke="#f00" stroke-miterlimit="10" fill="none"/><path d="M195.996 139.324l3.793 9.582" stroke-width="1.2" stroke="#000" stroke-miterlimit="10" fill="none"/><path d="M199.79 148.906l3.792 9.582" stroke-width="1.2" stroke="#f00" stroke-miterlimit="10" fill="none"/><path d="M204.797 117.672h8v11h-8zm0 0" fill="#fff"/><use xlink:href="#c" x="204.797" y="126.335" fill="#f00"/><path d="M203.582 158.488l10.195 1.504" stroke-width="1.2" stroke="#f00" stroke-miterlimit="10" fill="none"/><path d="M213.777 159.992l10.196 1.508" stroke-width="1.2" stroke="#000" stroke-miterlimit="10" fill="none"/><path d="M199.582 152.988h8v11h-8zm0 0" fill="#fff"/><use xlink:href="#c" x="199.582" y="161.651" fill="#f00"/><path d="M223.973 161.5l7.586 19.164M229.238 161.63l6.07 15.33M236.773 145.348l-12.8 16.152M231.56 180.664l20.385 3.012M251.945 183.676l12.805-16.153M249.426 179.047l10.242-12.922M264.75 167.523l-7.586-19.164M257.164 148.36l-20.39-3.012M254.414 152.855l-16.31-2.41" stroke-width="1.2" stroke="#000" stroke-miterlimit="10" fill="none"/></g></svg>
